X:1
T:Forth Worth, 76.76 D
T:Edward m. Fuller, 1901
T:Forth Worth, 76.76 D
T:Public Domain
C:Edward m. Fuller, 1901
Z:Public Domain
%%score ( 1 2 ) ( 3 4 )
L:1/8
M:4/4
K:Eb
V:1 treble 
V:2 treble 
V:3 bass 
V:4 bass 
V:1
 [EB]2 | [EB]2 [EG]2 [EG]2 [EA]2 | [EG]4 [DF]2 [DG]2 | E2 [EF]2 [EG]2 [E=A]2 | [DB]6 [DB]2 | %5
 [EB]2 [EG]2 [EA]2 [Ee]2 | [Ge]4 [GB]2 [EG]2 | [EB]2 [EA]2 [EG]2 [DF]2 | E6 [EB]2 | %9
 [Ge]3 [Ge] [Ge]2 [Fd]2 | [Ec]4 [EB]2 [EB]2 | [Ec]3 [Ec] [EB]2 [EG]2 | [DB]6 [DB]2 | %13
 [EB]2 [DB]2 [EB]2 [Ee]2 | [Ee]4 [Ec]2 [EA]2 | [EG]2 [EB]2 [DB]2 [B,D]2 | [B,E]6 |] %17
V:2
 x2 | x8 | x8 | E2 x6 | x8 | x8 | x8 | x8 | E6 x2 | x8 | x8 | x8 | x8 | x8 | x8 | x8 | x6 |] %17
V:3
 [E,G,]2 | [E,G,]2 [E,B,]2 [E,B,]2 [A,,C]2 | [B,,B,]4 [B,,B,]2 [B,,A,]2 | %3
 [C,G,]2 [C,G,]2 [F,=A,]2 F,2 | [B,,F,]6 [B,,_A,]2 | [E,G,]2 [E,_D]2 [E,C]2 [E,_C]2 | %6
 [E,B,]4 [E,E]2 [E,B,]2 | [E,G,]2 [A,,C]2 [B,,B,]2 [B,,A,]2 | [E,G,]6 [E,G,]2 | %9
 [E,B,]3 [E,B,] [C,C]2 [G,=B,]2 | [A,C]4 [E,G,]2 [E,G,]2 | A,3 A, [E,G,]2 E,2 | [B,,F,]6 [B,,A,]2 | %13
 [E,G,]2 [F,A,]2 [G,B,]2 [G,=B,]2 | [A,C]4 A,2 [A,,C]2 | [B,,B,]2 [B,,G,]2 B,,2 [B,,A,]2 | %16
 [E,G,]6 |] %17
V:4
 x2 | x8 | x8 | x6 F,2 | x8 | x8 | x8 | x8 | x8 | x8 | x8 | A,3 A, x E,2 x | x8 | x8 | x4 A,2 x2 | %15
 x8 | x6 |] %17

